X:1
T:Blessèd Are the Peacemakers
T:Blessèd Are the Peacemakers
T:Harrison Millard
T:George Cooper, 1873
T:Public Domain Courtesy of the Cyber Hymnal™
T:Public Domain Courtesy of the Cyber Hymnal™
C:Harrison Millard
Z:Public Domain
Z:Courtesy of the Cyber Hymnal™
%%score 1 ( 2 3 ) ( 4 5 )
L:1/8
Q:1/4=105
M:4/4
K:D
V:1 treble 
V:2 treble 
V:3 treble 
V:4 bass 
V:5 bass 
V:1
"^Solo" c3 d e2 A2 | A3 B A2 z d | d3 c (ed) (cB) | A8 |] x8 | x8 | x8 | x8 | x8 | x8 | x8 | x8 | %12
w: Be it ours to|quell each word Of|an- ger and * of *|strife.|||||||||
w: Calm- ing ev- ery|an- gry storm, That|rag- es in * the *|soul;|||||||||
 x8 | x8 | x8 | x8 | x8 | x8 | x8 | x8 | x8 | x8 | x8 | x8 | x8 | x8 | x8 | x8 |] %28
w: ||||||||||||||||
w: ||||||||||||||||
V:2
"^Andantino" z2 [DF][DF] [CG]2 [DA]2 | [DB]3 [DB] [DA]2 z [DA] | [Fd]2 [DF]2 [CA]3 [CA] | D8 |] %4
w: 1.~Bless- èd are the|peace- mak- ers, The|child- ren of their|God!|
w: 2.~Bless- èd are the|peace- mak- ers, The|child- ren of their|God!|
 z2 [DF][DF] [CG]2 [DA]2 | [DB]3 [DB] [DA]2 z [DA] | [Ec]2 [CA]2 [DB]2 [D^G]2 | [CA]8 | %8
w: Work- ing joy and|kind- li- ness While|here they on- ward|plod.|
w: Breath- ing sweet- est|in- cense round, Like|dai- sies from the|sod.|
 z A,[CG]A, z A,[CG]A, | z A,[DF]A, z A,[DF]A, | z A,[CG]A, z A,[CG]A, | %11
w: ~ ~ ~ ~ ~ ~|~ ~ ~ ~ ~ ~|~ ~ ~ ~ ~ ~|
w: ~ ~ ~ ~ ~ ~|~ ~ ~ ~ ~ ~|~ ~ ~ ~ ~ ~|
 z (B,[DG]B,) z (B,[DG]B,) | z2"^Tutti" [DF][DF] [CG]2 [DA]2 | [DB]3 [DB] [DA]2!>(! [=Fd]2!>)! | %14
w: ~ * * ~ * *|Sow- ing seeds of|gen- tle will, A-|
w: ~ * * ~ * *|Mir- ror- ing bright|Heav’n a- bove, While|
 [Fd]2 [DF]2 [CA]3 [CA] | D8 |"^Refrain" [GA]3 [GB] (cd) (ed) | [Gc]3 [GB] [GA]2 z [GA] | %18
w: mid our dai- ly|life.|Bless- èd are * the *|peace- mak- ers, The|
w: time shall on- ward|roll.|||
 [Fd]3 [Fc] (ed) (AF) | [EA]8 | [GA]3 [GB] (cd) (ed) | [Gc]3 [GB] [GA]2 z [GA] | %22
w: child- ren of * their *|God!|Work- ing joy * and *|kind- li- ness, While|
w: ||||
 [Fd]2 ([FA][DF]) [CA]3 [CA] | D8 | [DB]6 [DB]2 | [Gc]8 | [Fd]6 [Fd]2 | D8 |] %28
w: here they * on- ward|plod!|Blest are|they!|Blest are|they!|
w: ||||||
V:3
 x8 | x8 | x8 | x8 |] x8 | x8 | x8 | x8 | x8 | x8 | x8 | x8 | x8 | x8 | x8 | x8 | x4 G2 G2 | x8 | %18
 x4 F2 D2 | x8 | x4 G2 G2 | x8 | x8 | x8 | x8 | x8 | x8 | x8 |] %28
V:4
 z2 [D,A,][D,A,] [E,A,]2 [F,A,]2 | G,3 G, [F,A,]2 z [F,A,] | [D,A,]2 [D,A,]2 [A,,G,]3 [A,,G,] | %3
 [D,F,]8 |] z2 [D,A,][D,A,] [E,A,]2 [F,A,]2 | G,3 G, [F,A,]2 z [F,A,] | %6
 [E,A,]2 [E,A,]2 [E,^G,]2 [E,B,]2 | [A,,A,]8 | A,,2 z2 A,,2 z2 | D,2 z2 D,2 z2 | G,2 z2 G,2 z2 | %11
 D,2 z2 D,2 z2 | .[D,,D,] z [D,A,][D,A,] [E,A,]2 [F,A,]2 | G,3 =G, [F,A,]2!>(! [^G,B,]2!>)! | %14
 A,2 A,2 [A,,G,]3 [A,,G,] | [D,F,]8 | [A,C]3 [A,D] (ED) (CE) | [A,E]3 [A,D] [A,C]2 z [A,C] | %18
 [D,D]3 [D,D] [D,A,]2 (F,A,) | [A,C]8 | [A,C]3 [A,D] ED CD | [A,E]3 [B,E] [CE]2 z [A,C] | %22
 [D,D]2 (DA,) [A,,G,]3 [A,,G,] | [D,F,]8 | G,6 G,2 | [E,A,]8 | [D,A,]6 [D,A,]2 | D,8 |] %28
V:5
 x8 | G,3 G, x4 | x8 | x8 |] x8 | G,3 G, x4 | x8 | x8 | x8 | x8 | x8 | x8 | x8 | ^G,3 ^G, x4 | %14
 A,2 A,2 x4 | x8 | x4 A,2 B,2 | x8 | x6 D,2 | x8 | x4 A,2 A,2 | x8 | x2 D,2 x4 | x8 | G,6 G,2 | %25
 x8 | x8 | x8 |] %28

